!!key: tele-40-10-Fan-All-02-Flute
!!!COM: Telemann, Georg Philipp
!!!CDT: 1681/03/14-1767/06/25
!!!CBL: Magdeburg
!!!CDL: Hamburg
!!!CNT: German
!!!TWV: 40:10
!!!TWV-genre: 40
!!!TWV-work: 10
!!!OPR: 12 Fantasias for transverse flute without bass
!!!OTL: Fantasia 9
!!!OMD: Allegro
!!!OMV: 2
!!!ODT: ca. 1732–1733
!!!AST: Late Baroque
!!!AGN: Fantasia
!!!AMT: Simple triple or Compound one
!!!AIN: Transverse flute
**kern
*ICww
*Iflt
*clefG2
*k[f#c#g#d#]
*E:
*M3/8
=
8e
16g#
16e
16a
16e
=
16b
16e
16cc#
16a
16f#
16dd#
=
16ee
16e
(32gg#
16.ee)
(32ff#
16.dd#)
=
16ee
16cc#
(32ff#
16.dd#)
(32ee
16.cc#)
=
16dd#
16b
32ee
16.cc#
32dd#
16.b
!!LO:LB:g=original
=
16cc#
16f#
16a#X
16f#
16ff#
16f#
=
8b
16dd#
16b
16ee
16b
=
16ff#
16b
16gg#
16ee
16cc#
16aa#X
=
16bb
16b
16e
16b
16f#
16a#X
=
8b
16r
16an
16g#
16f#
!!LO:LB:g=original
=
16e#X
(16cc#
16ddn
16cc#
16dd
16cc#)
=
16g#
(16ddn
16cc#
16b#X
16cc#
16dd)
=
16e#X
(16ddn
16cc#)
16ee#X
16gg#
16g#
=
16a
16f#
16r
16een
16dd#X
16cc#
=
16b#X
(16gg#
16aa
16gg#
16aa
16gg#)
!!LO:LB:g=original
=
16dd#
(16aa
16gg#
16ff##X
16gg#
16aa)
=
16b#X
(16aa
16gg#)
16bb#X
16ddd#
16dd#
=
16ee
16cc#
16gg#
16cc#
16e
16gg#
=
8cc#
16ee
16cc#
16ff#
16cc#
=
16gg#
16cc#
16aa
16ff#
16dd#
16bb#X
!!LO:LB:g=original
=
16ccc#
16cc#
16f#
16cc#
16g#
16b#X
=
8cc#
16r
16dd#
16ee
16g#
=
16a#X
16cc#
16f#
16ee#X
16ff#
16een
=
8dd#
(32ff#
16.dd#)
(32ee
16.cc#)
=
16dd#
16b
(32f#
16.dd#)
(32e
16.cc#)
!!LO:LB:g=original
=
16d#
16f#
16b
16gg#
16aa
16cc#
=
16dd#
16ff#
16b
16aa#X
16bb
16aan
=
8gg#
(32bb
16.gg#)
(32aa
16.ff#)
=
16gg#
16ee
(32b
16.gg#)
(32a
16ff#.)
=
16g#
16b
16ee
16cc#
16ddn
16f#
!!LO:LB:g=original
=
16g#
16b
16e
16dd#X
16ee
16ddn
=
16cc#
16ee
16a
16ee#X
16ff#
16een
=
16dd#
16f#
16b
16a
16g#
16e
=
(32c#
16.a)
(32b
16.g#)
(32a
16.f#)
=
8e
16g#
16e
16a
16e
!!LO:LB:g=original
=
16b
16e
16c#
16a
16f#
16d#
=
16e
16e
16a
16e
16b
16d#
=
(32e
16.e)
(32f#
16.e)
(32g#
16.e)
=
16a
16cc#
16g#
16dn
16a
16c#
=
(32f#
16.f#)
(32g#
16.f#)
(32a#X
16.f#)
!!LO:LB:g=original
=
16b
16d#
16a#X
16e
16b
16d#
=
16d#
16f#
16e
16g#
16d#
16f#
=
(32b
16.b)
(32b
16.g#)
(32b
16.b)
=
(32b
16.a)
(32b
16.f#)
(32b
16.a)
=
16g#
16e
16c#
16e
16b
16d#
!!LO:LB:g=original
=
16e
16e
16d#
16e
16c#
16e
=
(32b
16.e)
(32g#
16.e)
(32b
16.e)
=
(32a
16.d#)
(32f#
16.d#)
(32a
16.d#)
=
16g#
16e
16f#
16e
16b
16d#
=
4.e
==
*-
!!!RTL1: G. PH. Telemann: Twelve Fantasias for Flute without Bass TWV 40:2-13
!!!RPN1: D'Arcangelo, Rita
!!!RMM1: Da Vinci Classics
!!!RC#1: DV-C00440
!!!RRD1: 2022
!!!RLC1: Andreaskirche, Berlin, Germany
!!!RDT1: 16 September 2020, 17 September 2020
!!!RT#1: 9
!!!RTL2: The Telemann Files: 12 Fantasies for Solo Flute
!!!RPN2: Choi, Jasmine
!!!RMM2: Austrian Gramophone
!!!RC#2: AG0001
!!!RRD2: February 2015
!!!RLC2: LeFrak Hall, Queens, USA
!!!RDT2: 9 June 2014, 10 June 2014
!!!RT#2: 9
!!!RTL3: Georg Philipp Telemann: Twelve Fantasies for Flute
!!!RPN3: Robertello, Thomas
!!!RMM3: Delos
!!!RC#3: DE3396
!!!RRD3: 1 June 2009
!!!RLC3: Clear Creek Recording, Keene, California
!!!RDT3: Unknown
!!!RT#3: 9
